!!!SOCIAL_FUNCTION:	songs used in the treatment of the sick
!!!PDT:	1929
!!!OTL: No_47_Song_when_Administering_Herb_Medicine.krn
!!!REG: Southwest
!!!LANG: Non-Tone
!!!LING_GROUP: Uto-Aztecan
**kern
*staff1
=1-
*clefF4
*k[b-e-a-]
*M3/4
8F\L
8F\J
8F\L
8F\J
8F\L
8F\J
=2
(8.G\L
16F\Jk)
8F\L
8F\J
8F\L
8F\J
=3
8G\L
8F\J
4F\
8F\L
8F\J
=4||
*M2/4
4F\
8G\L
8F\J
=5||
*M3/4
4F\
4E-\
8C/L
8C/J
=6
8F\L
8F\J
4E-\
8C/L
8C/J
=7||
*M2/4
4E-\
4C/
=8
8F\L
8F\J
8F\L
8F\J
=9||
*M3/4
(8.G\L
16F\Jk)
8F\L
8F\J
8F\L
8F\J
=10
8G\L
8F\J
4F\
8G\L
8F\J
=11||
*M2/4
4F\
8F\L
8F\J
=12||
*M3/4
4F\
4E-\
8C/L
8C/J
=13
8F\L
8F\J
4E-\
8C/L
8C/J
=14||
*M2/4
4E-\
4C/
=15!|:
4G\
8F\L
8F\J
=16
4F\
8F\L
8F\J
=17||
*M3/4
4F\
4E-\
8C/L
8C/J
=18
8F\L
8F\J
4E-\
8C/L
8C/J
=19||
*M2/4
4E-\
4C/
==:|!
*-
